static/assets/head_icons_png/man/bizi/1028222.svg

<svg xmlns="http://www.w3.org/2000/svg" width="8" height="10"><g transform="translate(-65.9 -29.2)"><path d="M68.25 38.35l-.1-.25v-.05l.3-.05h.05l.4.2.15.1.15.1h.15l.6.15L71 38.4l.6-.2q.15-.15.25-.2l.8-.15-.15.2-.35.15-.85.2-.45.2-.45.15-.6-.1-.15-.05-.85-.2-.5-.05h-.05" fill="#b57248"/><radialGradient id="a" gradientUnits="userSpaceOnUse" gradientTransform="matrix(.0026 0 0 .00243 70.6 38.4)" spreadMethod="pad" cx="0" cy="0" r="819.2" fx="0" fy="0"><stop offset="0" stop-color="#f39b61"/><stop offset="1" stop-color="#f8be98"/></radialGradient><path d="M72.65 37.85l-.8.15q-.1.05-.25.2l-.6.2-1.05.15-.6-.15h-.15l-.15-.1-.15-.1-.4-.2h-.05l-.3.05v.05l.1.25h-.4l-.25-.25.05-.05-.05-.05.25-.3.6-.1q.25 0 .75.4v-.1l.4.2.8.05.55-.45.15-.3v-.6l-.1-.7-.05-.1-.05-.4q-.15-1.9 0-3.75.85-1.45 2.2-2.6-.5.75-.95 2.2-.6 1.4-.65 2.45l.2.9.05.2.2.6v.05l.05.15.25.15.2.15.55.3.1.05.15.65.05.05v.4l-.1.3-.05.15-.15.05v.05l-.5-.05.15-.2" fill="url(#a)"/><radialGradient id="b" gradientUnits="userSpaceOnUse" gradientTransform="matrix(.0007 -.00002 .0001 .0025 70.1 33.8)" spreadMethod="pad" cx="0" cy="0" r="819.2" fx="0" fy="0"><stop offset=".314" stop-color="#fff" stop-opacity=".431"/><stop offset="1" stop-color="#fff" stop-opacity="0"/></radialGradient><path d="M70.4 32.25v.15l.15 1.45-.05 1.2v.2l-.05.25-.05.05-.1.35-.3-.35-.05-.05-.05-.3-.2-1.4.1-1.5.2-.55q.2 0 .4.5" fill="url(#b)"/><radialGradient id="c" gradientUnits="userSpaceOnUse" gradientTransform="matrix(.00089 .00006 -.00006 .00076 70.35 37.05)" spreadMethod="pad" cx="0" cy="0" r="819.2" fx="0" fy="0"><stop offset=".314" stop-color="#fff" stop-opacity=".431"/><stop offset="1" stop-color="#fff" stop-opacity="0"/></radialGradient><path d="M70.35 36.5l.5.2.1.45-.2.45-.55.2-.35-.2-.2-.05-.05-.05-.1-.35.1-.4.2-.05q.15-.2.55-.2" fill="url(#c)"/><radialGradient id="d" gradientUnits="userSpaceOnUse" gradientTransform="matrix(.00572 0 0 .00684 70.1 31.55)" spreadMethod="pad" cx="0" cy="0" r="819.2" fx="41" fy="0"><stop offset=".251" stop-color="#e69370" stop-opacity=".792"/><stop offset=".988" stop-color="#ffefea" stop-opacity="0"/></radialGradient><path d="M66.15 29.85h.05l.8-.2.75-.45.4.3.05.05.55.9.45 1.3v1.4h-.05l.05.5v.5l-.15.9v.35l-.2.05q-.45-2.1-1.15-3.25-.45-.85-1.8-2.2.1-.1.15-.1l.1-.05" fill="url(#d)"/></g></svg>

<?xml version="1.0" encoding="utf-8"?>
<svg version="1.1" id="Layer_1"
xmlns="http://www.w3.org/2000/svg"
xmlns:xlink="http://www.w3.org/1999/xlink"
xmlns:author="http://www.sothink.com"
width="8px" height="10px"
xml:space="preserve">
<g id="475" transform="matrix(1, 0, 0, 1, -65.9, -29.2)">
<path style="fill:#B57248;fill-opacity:1" d="M68.25,38.35L68.15 38.1L68.15 38.05L68.45 38L68.5 38L68.9 38.2L69.05 38.3L69.2 38.4L69.35 38.4L69.95 38.55L71 38.4L71.6 38.2Q71.75 38.05 71.85 38L72.65 37.85L72.5 38.05L72.15 38.2L71.3 38.4L70.85 38.6L70.4 38.75L69.8 38.65L69.65 38.6L68.8 38.4L68.3 38.35L68.25 38.35" />
<radialGradient
id="RadialGradID_4106" gradientUnits="userSpaceOnUse" gradientTransform="matrix(0.00259399, 0, 0, 0.00242615, 70.6, 38.4)" spreadMethod ="pad" cx="0" cy="0" r="819.2" fx="0" fy="0" >
<stop  offset="0"  style="stop-color:#F39B61;stop-opacity:1" />
<stop  offset="1"  style="stop-color:#F8BE98;stop-opacity:1" />
</radialGradient>
<path style="fill:url(#RadialGradID_4106) " d="M72.65,37.85L71.85 38Q71.75 38.05 71.6 38.2L71 38.4L69.95 38.55L69.35 38.4L69.2 38.4L69.05 38.3L68.9 38.2L68.5 38L68.45 38L68.15 38.05L68.15 38.1L68.25 38.35L68.15 38.35L68.1 38.35L67.85 38.35L67.6 38.1L67.65 38.05L67.6 38L67.85 37.7L68.45 37.6Q68.7 37.6 69.2 38L69.2 37.9L69.6 38.1L70.4 38.15L70.95 37.7L71.1 37.4L71.1 37.35L71.1 37L71.1 36.8L71 36.1L70.95 36L70.9 35.6Q70.75 33.7 70.9 31.85Q71.75 30.4 73.1 29.25Q72.6 30 72.15 31.45Q71.55 32.85 71.5 33.9L71.7 34.8L71.75 35L71.95 35.6L71.95 35.65L72 35.8L72.25 35.95L72.45 36.1L73 36.4L73.1 36.45L73.25 37.1L73.3 37.15L73.3 37.2L73.3 37.4L73.3 37.55L73.2 37.85L73.15 38L73 38.05L73 38.1L72.5 38.05L72.65 37.85" />
<radialGradient
id="RadialGradID_4107" gradientUnits="userSpaceOnUse" gradientTransform="matrix(0.000701904, -1.52588e-005, 0.000106812, 0.00250244, 70.1, 33.8)" spreadMethod ="pad" cx="0" cy="0" r="819.2" fx="0" fy="0" >
<stop  offset="0.313725"  style="stop-color:#FFFFFF;stop-opacity:0.431373" />
<stop  offset="1"  style="stop-color:#FFFFFF;stop-opacity:0" />
</radialGradient>
<path style="fill:url(#RadialGradID_4107) " d="M70.4,32.25L70.4 32.4L70.55 33.85L70.5 35.05L70.5 35.25L70.45 35.5L70.4 35.55L70.3 35.9L70 35.55L69.95 35.5L69.9 35.2L69.7 33.8L69.8 32.3L70 31.75Q70.2 31.75 70.4 32.25" />
<radialGradient
id="RadialGradID_4108" gradientUnits="userSpaceOnUse" gradientTransform="matrix(0.00088501, 6.10352e-005, -6.10352e-005, 0.000762939, 70.35, 37.05)" spreadMethod ="pad" cx="0" cy="0" r="819.2" fx="0" fy="0" >
<stop  offset="0.313725"  style="stop-color:#FFFFFF;stop-opacity:0.431373" />
<stop  offset="1"  style="stop-color:#FFFFFF;stop-opacity:0" />
</radialGradient>
<path style="fill:url(#RadialGradID_4108) " d="M70.35,36.5L70.85 36.7L70.95 37.15L70.75 37.6L70.2 37.8L69.85 37.6L69.65 37.55L69.6 37.5L69.5 37.15L69.6 36.75L69.8 36.7Q69.95 36.5 70.35 36.5" />
<radialGradient
id="RadialGradID_4109" gradientUnits="userSpaceOnUse" gradientTransform="matrix(0.00572205, 0, 0, 0.00683594, 70.1, 31.55)" spreadMethod ="pad" cx="0" cy="0" r="819.2" fx="41" fy="0" >
<stop  offset="0.25098"  style="stop-color:#E69370;stop-opacity:0.792157" />
<stop  offset="0.988235"  style="stop-color:#FFEFEA;stop-opacity:0" />
</radialGradient>
<path style="fill:url(#RadialGradID_4109) " d="M66.15,29.85L66.2 29.85L67 29.65L67.75 29.2L68.15 29.5L68.2 29.55L68.75 30.45L69.2 31.75L69.2 33.15L69.15 33.15L69.2 33.65L69.2 34.15L69.05 35.05L69.05 35.4L68.85 35.45Q68.4 33.35 67.7 32.2Q67.25 31.35 65.9 30Q66 29.9 66.05 29.9L66.15 29.85" />
</g>
</svg>
